src/icons/svgs/24/file-image.svg

<svg width="24" height="24" viewBox="0 0 24 24" fill="none" xmlns="http://www.w3.org/2000/svg">
<path d="M19.2208 5.46527L16.1113 2.69543C15.6083 2.25019 14.9292 2 14.225 2H6.66667C5.19375 2 4 3.06318 4 4.375L4.00025 18.625C4.00025 19.9364 5.194 21 6.66692 21H17.3333C18.8 21 20 19.9312 20 18.625V7.14336C20 6.51621 19.7208 5.91133 19.2208 5.46527ZM18 18.625C18 18.9529 17.7015 19.2188 17.3333 19.2188H6.6675C6.29925 19.2188 6.00083 18.9529 6.00083 18.625L6 4.37982C6 4.05193 6.2985 3.78607 6.66667 3.78607H13.3333V6.75C13.3333 7.40572 13.9304 7.9375 14.6667 7.9375H17.9625V18.625H18ZM12.9708 12.8359C12.7758 12.8359 12.5937 12.9228 12.4854 13.0673L10.8333 15.2777L10.3467 14.6272C10.2939 14.5558 10.222 14.4972 10.1375 14.4566C10.053 14.416 9.95851 14.3946 9.8625 14.3945C9.66742 14.3945 9.48529 14.4814 9.37708 14.6259L7.4325 17.2235C7.37393 17.3018 7.3403 17.3927 7.3352 17.4866C7.3301 17.5805 7.35372 17.6739 7.40354 17.7568C7.50375 17.9273 7.70167 18.0312 7.87917 18.0312H16.0458C16.261 18.0312 16.4586 17.9257 16.56 17.7568C16.6098 17.6739 16.6334 17.5805 16.6283 17.4866C16.6233 17.3927 16.5896 17.3018 16.531 17.2236L13.4198 13.0673C13.35 12.9213 13.1667 12.8359 12.9708 12.8359ZM9.33333 12.6875C10.0696 12.6875 10.6667 12.1557 10.6667 11.5C10.6667 10.8443 10.0708 10.3125 9.33333 10.3125C8.59583 10.3125 8 10.8432 8 11.5C8 12.1568 8.59583 12.6875 9.33333 12.6875Z" fill="black"/>
</svg>

<svg width="24" height="24" viewBox="0 0 24 24" xmlns="http://www.w3.org/2000/svg">
    <path d="m19.22 5.465-3.109-2.77A2.855 2.855 0 0 0 14.225 2H6.667C5.194 2 4 3.063 4 4.375v14.25C4 19.936 5.194 21 6.667 21h10.666C18.8 21 20 19.931 20 18.625V7.143c0-.627-.28-1.232-.78-1.678zM18 18.625c0 .328-.299.594-.667.594H6.668c-.369 0-.667-.266-.667-.594L6 4.38c0-.328.298-.594.667-.594h6.666V6.75c0 .656.597 1.188 1.334 1.188h3.295v10.687H18zm-5.03-5.79a.606.606 0 0 0-.485.232l-1.652 2.21-.486-.65a.561.561 0 0 0-.21-.17.638.638 0 0 0-.274-.063.606.606 0 0 0-.486.232l-1.945 2.598a.473.473 0 0 0-.029.533c.1.17.299.274.476.274h8.167a.597.597 0 0 0 .514-.274.473.473 0 0 0-.029-.533l-3.111-4.157c-.07-.146-.253-.231-.45-.231zm-3.637-.148c.737 0 1.334-.531 1.334-1.187s-.596-1.188-1.334-1.188C8.596 10.313 8 10.844 8 11.5c0 .657.596 1.188 1.333 1.188z"/>
</svg>
